static/assets/images/networks/aurora-mono.svg

<svg width="280" height="256" viewBox="0 0 280 256" fill="none" xmlns="http://www.w3.org/2000/svg">
<path d="M139.752 255.982H52.905C26.1127 255.982 4.1064 236.918 0.491688 210.437C-1.15662 198.447 1.38451 187.241 7.43553 176.787C21.1064 153.171 34.7556 129.532 48.383 105.87C63.6516 79.4156 78.9237 52.9632 94.1994 26.5132C102.875 11.5411 115.844 2.37417 132.985 0.436682C155.722 -2.13699 173.524 6.68286 185.254 26.4408C198.328 48.4616 210.918 70.768 223.732 92.9515C239.878 120.905 256.024 148.867 272.17 176.838C277.292 185.701 279.807 195.194 279.54 205.445C278.896 229.992 259.793 251.713 235.589 255.27C232.556 255.716 229.495 255.944 226.429 255.953C197.535 256.004 168.643 256.013 139.752 255.982ZM139.752 223.475C168.583 223.475 197.415 223.475 226.248 223.475C229.99 223.475 233.536 222.824 236.829 220.981C245.529 216.119 250.452 204.071 243.986 192.963C224.589 159.657 205.399 126.225 186.129 92.8358C176.477 76.119 166.827 59.4022 157.178 42.6854C153.097 35.6259 146.913 32.1305 138.816 32.4594C131.297 32.7631 125.853 36.5874 122.109 43.0866C102.996 76.2938 83.8601 109.479 64.6997 142.643C55.0244 159.415 45.343 176.184 35.6556 192.949C33.288 197.033 31.9939 201.339 32.7204 206.059C34.3507 216.636 42.3609 223.464 53.093 223.471C81.9769 223.484 110.864 223.485 139.756 223.475H139.752Z" fill="black"/>
</svg>

<svg xmlns="http://www.w3.org/2000/svg" fill="none" viewBox="0 0 280 256"><path fill="#000" d="M139.752 255.982H52.905c-26.792 0-48.799-19.064-52.413-45.545-1.649-11.99.893-23.196 6.944-33.65q20.506-35.424 40.947-70.917 22.903-39.681 45.816-79.357c8.676-14.972 21.645-24.139 38.786-26.076 22.737-2.574 40.539 6.246 52.269 26.004 13.074 22.02 25.664 44.327 38.478 66.51q24.219 41.93 48.438 83.887c5.122 8.863 7.637 18.356 7.37 28.607-.644 24.547-19.747 46.268-43.951 49.825a64 64 0 0 1-9.16.683q-43.34.076-86.677.029m0-32.507h86.496c3.742 0 7.288-.651 10.581-2.494 8.7-4.862 13.623-16.91 7.157-28.018-19.397-33.306-38.587-66.738-57.857-100.127q-14.478-25.076-28.951-50.15c-4.081-7.06-10.265-10.556-18.362-10.227-7.519.304-12.963 4.128-16.707 10.628a70279 70279 0 0 1-57.41 99.556 80461 80461 0 0 1-29.043 50.306c-2.368 4.084-3.662 8.39-2.936 13.11 1.63 10.577 9.64 17.405 20.373 17.412q43.325.02 86.663.004z"/></svg>
